X:17656
T:Top Hornpipe. BF12.32
M:4/4
L:1/8
Q:160
C:Browne "C" hand
S:MS12,c1835,Browne Coll.,Lakes
R:Hornpipe
O:England
A:Lakes
N:
Z:vmp.Chris Partington.
K:D
A/B/c|dcBA FAdc|BAGF EFGA|FAdc Bcde|c2A2A2A/B/c|!
dcBA FAdc|BAGF EFGB|AdFd GBDC|D2D2D2:|!
|:z2|F2Acd2fd|cdef gece|f2afB2gf|efec dcBA|!
d2cde2ce|f2af gbge|a2feB2gc|d2f2d2:|]
